!!!!SEGMENT: pl-gd--ee-1638--002-005_marenzio-luca--motettorum-pro-festis-totius-anni-in-circuncisione-domini-magnum-haereditatis-mysterium.krn
!!!cenid: 15xx:1008
!!!COM: Marenzio, Luca
!!!COM-rismID: pe30003955
!!!CDT: ~1553-1599/08/22
!!!CNT: Italian
!!!GTL: Motettorum pro festis totius anni
!!!OTL: In Circuncisione Domini/Magnum haereditatis mysterium
!!!OMV: 005
!!!PDT: 1588
!!!AGN:
!!!SMS-siglum: PL-GD
!!!SMS-shelfmark: Ee 1638
!!!SMS-shelfwork: 002-005 G
!!!SMS-variant:
!!!SMS-altvar:
!!!NIFC-rismSourceID: 990039238
!!!NIFC-islandoraID: pl-gd:57883
!!!URL-pdf-islandora: https://repozytorium.nifc.pl/islandora/object/pl-gd%3A57883/datastream/PDF/view
!!!URL-scan: https://polish.musicsources.pl/pl/lokalizacje/galeria/klocki-introligatorskie/655 @EN{Scan on Polish Music Herritage in Open Access Website} @PL{Skany w portalu Dziedzictwo Muzyki Polskiej w otwartym dostępie}
!!!ONB-nifc: UWAGA: Cantus: s. 618 (prawa), Altus: s. 466 (prawa), Tenor: s. 314 (prawa), Bassus: s. 162 (prawa)
!!!AIN: 1 alto 1 bass 1 soprn 1 tenor
!!!key:
**kern	**text	**kern	**text	**kern	**text	**kern	**text
*part4	*part4	*part3	*part3	*part2	*part2	*part1	*part1
*staff4	*staff4	*staff3	*staff3	*staff2	*staff2	*staff1	*staff1
*I"BASSO	*	*I"TENORE	*	*I"ALTO	*	*I"CANTO	*
*I'B	*	*I'T	*	*I'A	*	*I'S	*
*Ibass	*	*Itenor	*	*Ialto	*	*Isoprn	*
*ICvox	*	*ICvox	*	*ICvox	*	*ICvox	*
*IG	*	*	*	*	*	*	*
*clefF4	*	*clefC4	*	*clefC3	*	*clefC1	*
*k[]	*	*k[]	*	*k[]	*	*k[]	*
*g:	*	*g:	*	*g:	*	*g:	*
*M2/2	*	*M2/2	*	*M2/2	*	*M2/2	*
*met(C|)	*	*met(C|)	*	*met(C|)	*	*met(C|)	*
*	*	*	*	*	*	*	*
=1-	=1-	=1-	=1-	=1-	=1-	=1-	=1-
!	!	!	!	!	!	!LO:TX:a:t=In Circunciſione Domini.	!
1r	.	1r	.	1r	.	0a	MA-
=2-	=2-	=2-	=2-	=2-	=2-	=2-	=2-
1r	.	1r	.	1r	.	.	.
=3-	=3-	=3-	=3-	=3-	=3-	=3-	=3-
!	!	!	!	!LO:TX:a:t=In Circunciſione Domini.	!	!	!
1r	.	1r	.	0d	MA-	1a	-gnu[m]
=4-	=4-	=4-	=4-	=4-	=4-	=4-	=4-
1r	.	1r	.	.	.	2r	.
.	.	.	.	.	.	2d/	hae-
=5-	=5-	=5-	=5-	=5-	=5-	=5-	=5-
1r	.	1r	.	1d	-gnum	2a\	-re-
.	.	.	.	.	.	2a\	-di-
=6-	=6-	=6-	=6-	=6-	=6-	=6-	=6-
1r	.	1r	.	2r	.	1g	-ta-
.	.	.	.	2G/	hae-	.	.
=7-	=7-	=7-	=7-	=7-	=7-	=7-	=7-
1r	.	1r	.	2d\	-re-	2f/	-tis
.	.	.	.	2d\	-di-	2f/	my-
=8-	=8-	=8-	=8-	=8-	=8-	=8-	=8-
1r	.	1r	.	1c	-ta-	4e/	ſte-
.	.	.	.	.	.	4f/	.
.	.	.	.	.	.	4g/	.
.	.	.	.	.	.	4a\	.
=9-	=9-	=9-	=9-	=9-	=9-	=9-	=9-
1r	.	1r	.	2B/	-tis	4b\	.
.	.	.	.	.	.	4cc\	.
.	.	.	.	2B/	my-	4dd\	.
.	.	.	.	.	.	4b\	.
=10-	=10-	=10-	=10-	=10-	=10-	=10-	=10-
1r	.	1r	.	4A/	ſte-	2cc\	.
.	.	.	.	4B/	.	.	.
.	.	.	.	4c/	.	2cc\	.
.	.	.	.	4d\	.	.	.
=11-	=11-	=11-	=11-	=11-	=11-	=11-	=11-
*	*	*	*	*	*	*lig	*
1r	.	1r	.	4e\	.	1b	rium
.	.	.	.	4f\	.	.	.
.	.	.	.	4g\	.	.	.
.	.	.	.	4e\	.	.	.
=12-	=12-	=12-	=12-	=12-	=12-	=12-	=12-
1r	.	1r	.	2f\	.	1.a	.
.	.	.	.	4e\	.	.	.
!	!	!	!	!LO:SIC:v:t=custos e c#	!	!	!
.	.	.	.	4d\	.	.	.
!	!	!	!	!LO:LB:g=original	!	!	!
*	*	*	*	*	*	*Xlig	*
=13-	=13-	=13-	=13-	=13-	=13-	=13-	=13-
!	!	!LO:TX:a:t=In Circunciſione Domini.	!	!	!	!	!
1r	.	0A	MA-	2c#X/	.	.	.
.	.	.	.	1d\	.	4g/	.
!	!	!	!	!	!	!LO:SIC:v:t=custos e	!
.	.	.	.	.	.	4f/	.
!	!	!	!	!	!	!LO:LB:g=original	!
=14-	=14-	=14-	=14-	=14-	=14-	=14-	=14-
*	*	*	*	*	*	*lig	*
1r	.	.	.	.	.	1e	.
.	.	.	.	2c#X/	.	.	.
=15-	=15-	=15-	=15-	=15-	=15-	=15-	=15-
!LO:TX:a:t=In Circunciſione Domini.	!	!	!	!	!	!	!
0D	MA-	1A	-gnum	1d	rium	3%2f	.
*	*	*	*	*	*	*Xlig	*
.	.	.	.	.	.	3g/	.
=16-	=16-	=16-	=16-	=16-	=16-	=16-	=16-
.	.	2r	.	1r	.	4a\	.
.	.	.	.	.	.	4g/	.
.	.	2D/	hae-	.	.	4f#X/	.
.	.	.	.	.	.	4e/	.
=17-	=17-	=17-	=17-	=17-	=17-	=17-	=17-
1D	-gnum	2A/	-re-	0d	Ma-	4f#X/	.
.	.	.	.	.	.	4g/	.
.	.	2A/	-di-	.	.	4a\	.
.	.	.	.	.	.	4f#X/	.
=18-	=18-	=18-	=18-	=18-	=18-	=18-	=18-
2r	.	1G	-ta-	.	.	4g/	.
.	.	.	.	.	.	4a\	.
2GG/	hae-	.	.	.	.	4b\	.
.	.	.	.	.	.	4g/	.
=19-	=19-	=19-	=19-	=19-	=19-	=19-	=19-
2D/	-re-	2F/	-tis	1d	-gnum	2.a\	.
2D/	-di-	2F/	my-	.	.	.	.
.	.	.	.	.	.	4b\	.
=20-	=20-	=20-	=20-	=20-	=20-	=20-	=20-
1C	-ta-	4E/	ſte-	2r	.	1cc	.
.	.	4F/	.	.	.	.	.
.	.	4G/	.	2G/	hae-	.	.
.	.	4A/	.	.	.	.	.
=21-	=21-	=21-	=21-	=21-	=21-	=21-	=21-
2BB/	-tis	4B\	.	2d\	-re-	1r	.
.	.	4c\	.	.	.	.	.
2BB/	my-	4e\	.	2d\	-di-	.	.
!	!	!LO:SIC:v:t=custos e	!	!	!	!	!
.	.	4B\	.	.	.	.	.
=22-	=22-	=22-	=22-	=22-	=22-	=22-	=22-
4AA/	ſte-	1.e	.	1cny	-ta-	2r	.
4BB/	.	.	.	.	.	.	.
4C/	.	.	.	.	.	2c/	hae-
!LO:SIC:v:t=custos E	!	!	!	!	!	!	!
4D/	.	.	.	.	.	.	.
!LO:LB:g=original	!	!	!	!	!	!	!
=23-	=23-	=23-	=23-	=23-	=23-	=23-	=23-
4E\	.	.	.	2B/	tis	2g/	-re-
4F\	.	.	.	.	.	.	.
4A\	.	2e\	.	2B/	my-	2g/	-di-
4E\	.	.	.	.	.	.	.
=24-	=24-	=24-	=24-	=24-	=24-	=24-	=24-
2F\	.	1c	rium	4A/	-ſte-	2.a\	-ta-
.	.	.	.	4B/	.	.	.
2F\	.	.	.	4c/	.	.	.
.	.	.	.	4d\	.	4b\	.
=25-	=25-	=25-	=25-	=25-	=25-	=25-	=25-
1E	rium	2r	.	4e\	.	2cc\	.
.	.	.	.	4f\	.	.	.
!	!	!	!	!	!	!LO:SIC:v:t=custos a	!
.	.	2G/	hae-	4g\	.	2b\	-tis
!	!	!	!	!	!	!LO:LB:g=original	!
.	.	.	.	4e\	.	.	.
=26-	=26-	=26-	=26-	=26-	=26-	=26-	=26-
1r	.	2d\	-re-	2f\	.	1.a	my-
.	.	2d\	-di-	2f\	-rium	.	.
=27-	=27-	=27-	=27-	=27-	=27-	=27-	=27-
*	*	*	*	*lig	*	*	*
2r	.	1c	-ta-	1e	.	.	.
2C/	hae-	.	.	.	.	2.g/	ſte-
=28-	=28-	=28-	=28-	=28-	=28-	=28-	=28-
2G\	-re-	2B\	tis	1d	.	.	.
.	.	.	.	.	.	4a\	.
2G\	-di-	2B\	my-	.	.	4b\	.
.	.	.	.	.	.	4g/	.
*	*	*	*	*Xlig	*	*	*
=29-	=29-	=29-	=29-	=29-	=29-	=29-	=29-
1F	-ta-	4A\	-ſte-	2r	.	2.cc\	.
.	.	4B\	.	.	.	.	.
!	!	!	!	!LO:SIC:v:t=custos g	!	!	!
.	.	4c\	.	2c/	hae-	.	.
!	!	!	!	!LO:LB:g=original	!	!	!
.	.	4A/	.	.	.	4dd\	.
=30-	=30-	=30-	=30-	=30-	=30-	=30-	=30-
2E\	tis	2.B\	.	2g\	-re-	2ee\	.
2E\	my-	.	.	2g\	-di-	2ee\	-rium
.	.	4c\	.	.	.	.	.
=31-	=31-	=31-	=31-	=31-	=31-	=31-	=31-
4D\	-ſte-	4d\	.	1f	-ta-	1a	.
4E\	.	8c\	.	.	.	.	.
.	.	8B\	.	.	.	.	.
4F\	.	4A/	.	.	.	.	.
4G\	.	4B\	.	.	.	.	.
=32-	=32-	=32-	=32-	=32-	=32-	=32-	=32-
4A\	.	4c\	.	2e\	-tis	2r	.
4B\	.	4d\	.	.	.	.	.
4c\	.	2.e\	.	2c/	my-	2a\	te[m]-
!LO:SIC:v:t=custos B-	!	!	!	!	!	!	!
4A\	.	.	.	.	.	.	.
!LO:LB:g=original	!	!	!	!	!	!	!
=33-	=33-	=33-	=33-	=33-	=33-	=33-	=33-
2B-X\	.	.	.	2d\	ſte-	2fny/	-pl[um]
.	.	4d\	.	.	.	.	.
!	!	!LO:SIC:v:t=custos c#	!	!	!	!	!
2B-\	.	1d\	.	2d\	-rium	2g/	De-
!	!	!LO:LB:g=original	!	!	!	!	!
=34-	=34-	=34-	=34-	=34-	=34-	=34-	=34-
*	*	*	*	*lig	*	*	*
1A	rium	.	.	1e	.	2a\	i
.	.	4c#X\	.	.	.	2.a\	ſa-
.	.	4B\	.	.	.	.	.
=35-	=35-	=35-	=35-	=35-	=35-	=35-	=35-
2r	.	2c#X\	.	1A	.	.	.
.	.	.	.	.	.	4a\	-ctus
2A\	tem-	2c#\	.	.	.	2e/	eſt
*	*	*	*	*Xlig	*	*	*
=36-	=36-	=36-	=36-	=36-	=36-	=36-	=36-
2F\	-plum	1d	rium	2r	.	2f/	ute-
2G\	De-	.	.	2g\	te[m]-	2d/	.
=37-	=37-	=37-	=37-	=37-	=37-	=37-	=37-
2A\	i	1r	.	2e\	-plum	2.c/	-rus
2.A\	fa-	.	.	2f\	De-	.	.
.	.	.	.	.	.	4d/	.
=38-	=38-	=38-	=38-	=38-	=38-	=38-	=38-
.	.	2r	.	1c	i	4e/	.
4A\	-ctus	.	.	.	.	4f/	.
2E\	eſt	2e\	te[m]-	.	.	4g/	.
.	.	.	.	.	.	4e/	.
=39-	=39-	=39-	=39-	=39-	=39-	=39-	=39-
2F\	ute-	2cny\	-plum	1r	.	2.a\	.
2D/	.	2d\	De-	.	.	.	.
.	.	.	.	.	.	4b\	.
=40-	=40-	=40-	=40-	=40-	=40-	=40-	=40-
1C	rus	2e\	i	1r	.	2.cc\	.
.	.	2.e\	ſa-	.	.	.	.
.	.	.	.	.	.	8b\	.
!	!	!	!	!	!	!LO:SIC:v:t=custos g	!
.	.	.	.	.	.	8a\	.
!	!	!	!	!	!	!LO:LB:g=original	!
=41-	=41-	=41-	=41-	=41-	=41-	=41-	=41-
2r	.	.	.	2r	.	1g	.
.	.	4e\	-ctus	.	.	.	.
*	*	*	*	*	*ij	*	*
2E\	tem-	2B\	eſt	2g\	te[m]-	.	.
=42-	=42-	=42-	=42-	=42-	=42-	=42-	=42-
2C/	-plu[m]	2c\	ute-	2e\	-plum	1r	.
2D/	De-	2A/	.	2f#X\	De-	.	.
=43-	=43-	=43-	=43-	=43-	=43-	=43-	=43-
2E\	i	2.G/	.	2g\	i	1r	.
*	*	*	*	*	*Xij	*	*
2.E\	ſa-	.	.	2.g\	fa-	.	.
.	.	4A/	.	.	.	.	.
=44-	=44-	=44-	=44-	=44-	=44-	=44-	=44-
.	.	1B	rus	.	.	1.g	ne-
!LO:SIC:v:t=custos BB	!	!	!	!	!	!	!
4E\	-ctus	.	.	4g\	-ctus	.	.
!LO:LB:g=original	!	!	!	!	!	!	!
2BB/	eſt	.	.	2d\	eſt	.	.
=45-	=45-	=45-	=45-	=45-	=45-	=45-	=45-
2C/	ute-	1r	.	2e\	vte-	.	.
!	!	!	!	!LO:SIC:v:t=custos d	!	!	!
2AA/	.	.	.	2c/	.	2a\	ſcie-
!	!	!	!	!LO:LB:g=original	!	!	!
=46-	=46-	=46-	=46-	=46-	=46-	=46-	=46-
*	*	*	*	*lig	*	*	*
1GG	rus	2r	.	1d	-rus	1b	-ns
.	.	1G/	neſ-	.	.	.	.
=47-	=47-	=47-	=47-	=47-	=47-	=47-	=47-
1C	neſ-	.	.	1e	.	4cc\	vi-
.	.	.	.	.	.	4b\	.
.	.	1A\	-cie-	.	.	4a\	.
.	.	.	.	.	.	4g\	.
*	*	*	*	*Xlig	*	*	*
=48-	=48-	=48-	=48-	=48-	=48-	=48-	=48-
*	*	*	*	*	*	*lig	*
1D	-cie-	.	.	1r	.	1f	.
.	.	1B\	-ns	.	.	.	.
=49-	=49-	=49-	=49-	=49-	=49-	=49-	=49-
1E	-ns	.	.	1G	ne-	3%2e	.
!	!	!LO:SIC:v:t=custos B	!	!	!	!	!
.	.	1c\	vi-	.	.	.	.
!	!	!LO:LB:g=original	!	!	!	!	!
.	.	.	.	.	.	3d/	.
=50-	=50-	=50-	=50-	=50-	=50-	=50-	=50-
1F	vir-	.	.	1A	ſcie-	2c/	.
.	.	4B\	.	.	.	2d/	.
.	.	4A\	.	.	.	.	.
=51-	=51-	=51-	=51-	=51-	=51-	=51-	=51-
0E	um	2G#X/	.	2B/	-ns	0.e	-rum
.	.	1A\	.	2c/	vi-	.	.
=52-	=52-	=52-	=52-	=52-	=52-	=52-	=52-
*	*	*	*	*lig	*	*	*
.	.	.	.	1B	rum	.	.
.	.	2G#X/	.	.	.	.	.
=53-	=53-	=53-	=53-	=53-	=53-	=53-	=53-
2r	.	2A/	-rum	3%2c	.	.	.
2A\	no[n]	2c\	no[n]	.	.	.	.
.	.	.	.	3d\	.	.	.
=54-	=54-	=54-	=54-	=54-	=54-	=54-	=54-
2A\	eſt	2.c\	eſt	1e	.	1r	.
2A\	po[l]-	.	.	.	.	.	.
.	.	4A/	pol-	.	.	.	.
=55-	=55-	=55-	=55-	=55-	=55-	=55-	=55-
2G\	-lu-	2B\	-lu-	2r	.	2r	.
2F\	-tus	2c\	-tus	2fny\	no[n]	2a\	no[n]
=56-	=56-	=56-	=56-	=56-	=56-	=56-	=56-
1r	.	1r	.	2.f\	eſt	2a\	eſt
.	.	.	.	.	.	2a\	po[l]-
.	.	.	.	4d\	pol-	.	.
=57-	=57-	=57-	=57-	=57-	=57-	=57-	=57-
2r	.	2r	.	2e\	-lu-	2g/	-lu-
*	*ij	*	*	*	*	*	*
2F\	non	2A/	non	2f\	-tus	2f/	-tus
=58-	=58-	=58-	=58-	=58-	=58-	=58-	=58-
2.F\	eſt	2A/	eſt	1r	.	2r	.
.	.	2A/	po-	.	.	2f/	ex
4D/	po-	.	.	.	.	.	.
=59-	=59-	=59-	=59-	=59-	=59-	=59-	=59-
!LO:SIC:v:t=custos F	!	!	!	!	!	!	!
2E\	-lu-	2Gny/	-lu-	2r	.	2g/	ea
!LO:LB:g=original	!	!	!	!	!	!	!
2F\	-tus	2F/	-tus	2c/	ex	2a\	.
*	*Xij	*	*	*	*	*	*
=60-	=60-	=60-	=60-	=60-	=60-	=60-	=60-
1r	.	1r	.	2d\	ea	2f/	car-
.	.	.	.	2e\	.	2g/	-ne[m]
=61-	=61-	=61-	=61-	=61-	=61-	=61-	=61-
1r	.	1r	.	2c/	car-	2.a\	aſ-
.	.	.	.	2d\	-ne[m]	.	.
.	.	.	.	.	.	4b\	.
=62-	=62-	=62-	=62-	=62-	=62-	=62-	=62-
1r	.	1r	.	4e\	aſ-	4cc\	.
!	!	!	!	!LO:SIC:v:t=custos c	!	!LO:SIC:v:t=custos cc	!
.	.	.	.	4d\	.	4b\	.
!	!	!	!	!LO:LB:g=original	!	!LO:LB:g=original	!
.	.	.	.	4c/	.	2.cc\	.
.	.	.	.	4B/	.	.	.
=63-	=63-	=63-	=63-	=63-	=63-	=63-	=63-
1r	.	1r	.	4A/	.	.	.
.	.	.	.	4B/	.	4b\	.
.	.	.	.	4c/	.	1a\	.
.	.	.	.	4A/	.	.	.
=64-	=64-	=64-	=64-	=64-	=64-	=64-	=64-
1r	.	1r	.	2.B/	ſu-	.	.
.	.	.	.	.	.	2g#X/	-ſu-
.	.	.	.	4B/	mens	.	.
=65-	=65-	=65-	=65-	=65-	=65-	=65-	=65-
2r	.	2r	.	4A/	.	0a	-mens
.	.	.	.	4B/	.	.	.
*	*	*	*ij	*	*	*	*
2A\	non	2c\	non	4c/	.	.	.
.	.	.	.	4d\	.	.	.
=66-	=66-	=66-	=66-	=66-	=66-	=66-	=66-
2A\	eſt	2.c\	eſt	1e	.	.	.
2A\	pol-	.	.	.	.	.	.
!	!	!LO:SIC:v:t=custos B	!	!	!	!	!
.	.	4A/	pol-	.	.	.	.
!	!	!LO:LB:g=original	!	!	!	!	!
=67-	=67-	=67-	=67-	=67-	=67-	=67-	=67-
2G\	-lu-	2B\	-lu-	2r	.	2r	.
2F\	-tus	2c\	-tus	2f\	non	2a\	no[n]
*	*	*	*Xij	*	*	*	*
=68-	=68-	=68-	=68-	=68-	=68-	=68-	=68-
1r	.	1r	.	2.f\	eſt	2a\	eſt
.	.	.	.	.	.	2a\	po-
.	.	.	.	4d\	po-	.	.
=69-	=69-	=69-	=69-	=69-	=69-	=69-	=69-
2r	.	2r	.	2e\	-lu-	2gny/	-lu-
*	*ij	*	*ij	*	*	*	*
2F\	non	2A/	non	2f\	-tus	2f/	-tus
=70-	=70-	=70-	=70-	=70-	=70-	=70-	=70-
2.F\	eſt	2A/	eſt	1r	.	2r	.
.	.	2A/	pol-	.	.	2f/	ex
4D/	pol-	.	.	.	.	.	.
=71-	=71-	=71-	=71-	=71-	=71-	=71-	=71-
2E\	-lu-	2G/	-lu-	2r	.	2g/	ca
2F\	-tus	2F/	-tus	2c/	ex	2a\	.
*	*Xij	*	*Xij	*	*	*	*
=72-	=72-	=72-	=72-	=72-	=72-	=72-	=72-
1r	.	1r	.	2d\	ca	2f/	car-
.	.	.	.	2e\	.	2g/	-ne[m]
=73-	=73-	=73-	=73-	=73-	=73-	=73-	=73-
1r	.	1r	.	2c/	car-	2.a\	aſ
.	.	.	.	2d\	-nem	.	.
.	.	.	.	.	.	4b\	.
=74-	=74-	=74-	=74-	=74-	=74-	=74-	=74-
1r	.	1r	.	4e\	aſ	4cc\	.
.	.	.	.	4d\	.	4b\	.
.	.	.	.	4c/	.	2.cc\	ſu-
!	!	!	!	!LO:SIC:v:t=custos A	!	!	!
.	.	.	.	4B/	.	.	.
!	!	!	!	!LO:LB:g=original	!	!	!
=75-	=75-	=75-	=75-	=75-	=75-	=75-	=75-
2r	.	1r	.	4A/	.	.	.
.	.	.	.	4B/	.	4b\	.
2C/	ex	.	.	4c/	.	1a\	.
.	.	.	.	4A/	.	.	.
=76-	=76-	=76-	=76-	=76-	=76-	=76-	=76-
*	*	*	*	*lig	*	*	*
2D/	ea	1r	.	1B	.	.	.
2E\	.	.	.	.	.	2.g/	.
=77-	=77-	=77-	=77-	=77-	=77-	=77-	=77-
!LO:SIC:v:t=custos D	!	!	!	!	!	!	!
2C/	cer-	1r	.	3%2A	.	.	.
.	.	.	.	.	.	8f#X/	.
!LO:LB:g=original	!	!	!	!	!	!LO:SIC:v:t=custos f#	!
.	.	.	.	.	.	8e/	.
!	!	!	!	!	!	!LO:LB:g=original	!
2D/	nem	.	.	.	.	2f#X/	.
*	*	*	*	*Xlig	*	*	*
.	.	.	.	3A/	.	.	.
=78-	=78-	=78-	=78-	=78-	=78-	=78-	=78-
4E\	aſ	2r	.	1G	ſu-	1g	mens
4D/	.	.	.	.	.	.	.
4C/	.	2G/	ex	.	.	.	.
4BB/	.	.	.	.	.	.	.
=79-	=79-	=79-	=79-	=79-	=79-	=79-	=79-
2AA/	.	2A/	ea	2c/	mens	2r	.
2GG/	ſu-	2B\	cer-	2d\	ex	2g/	ex
=80-	=80-	=80-	=80-	=80-	=80-	=80-	=80-
*lig	*	*	*	*	*	*	*
1C	-mens	2G/	-ne[m]	2e\	ea	2g/	ea
.	.	2A/	.	2c/	car-	2e/	.
=81-	=81-	=81-	=81-	=81-	=81-	=81-	=81-
1GG	.	2.B\	aſ	2d\	-ne	2g/	car-
.	.	.	.	2.e\	aſ	2g/	-ne
.	.	4c\	.	.	.	.	.
*Xlig	*	*	*	*	*	*	*
=82-	=82-	=82-	=82-	=82-	=82-	=82-	=82-
1r	.	2d\	.	.	.	2f#X/	aſ-
.	.	.	.	4d\	.	.	.
.	.	2G/	ſu-	1d\	.	2g/	-ſu-
=83-	=83-	=83-	=83-	=83-	=83-	=83-	=83-
*	*	*	*	*	*	*lig	*
1r	.	1A	-mens	.	.	1e	-mens
.	.	.	.	2c#X/	ſu-	.	.
=84-	=84-	=84-	=84-	=84-	=84-	=84-	=84-
2r	.	2r	.	1d	-mens	1fny	.
1D\	om-	1A\	om-	.	.	.	.
*	*	*	*	*	*	*Xlig	*
=85-	=85-	=85-	=85-	=85-	=85-	=85-	=85-
.	.	.	.	2r	.	2r	.
2D/	-nes	2A/	-nes	1d\	o-	1f#X/	o-
=86-	=86-	=86-	=86-	=86-	=86-	=86-	=86-
0D	gen-	0A	gen-	.	.	.	.
.	.	.	.	2d\	-mnes	2fny/	-mnes
=87-	=87-	=87-	=87-	=87-	=87-	=87-	=87-
.	.	.	.	1d	gen-	1f	gen-
=88-	=88-	=88-	=88-	=88-	=88-	=88-	=88-
!	!	!LO:SIC:v:t=custos c	!	!	!	!	!
*	*	*	*	*	*	*lig	*
1G	-tes	1B	-tes	2.d\	-tes	1g	-tes
!	!	!LO:LB:g=original	!	!	!	!	!
.	.	.	.	4e\	.	.	.
=89-	=89-	=89-	=89-	=89-	=89-	=89-	=89-
2.F\	ve-	2r	.	1f	.	1a	.
.	.	2.c\	ve-	.	.	.	.
4F\	-ni-	.	.	.	.	.	.
*	*	*	*	*	*	*Xlig	*
=90-	=90-	=90-	=90-	=90-	=90-	=90-	=90-
2E\	-ent	.	.	1r	.	1r	.
.	.	4c\	-ni-	.	.	.	.
2E\	di-	2B\	-ent	.	.	.	.
=91-	=91-	=91-	=91-	=91-	=91-	=91-	=91-
1D	-cen-	2B\	di-	2r	.	1r	.
.	.	1A\	-cen-	2.f\	ve-	.	.
=92-	=92-	=92-	=92-	=92-	=92-	=92-	=92-
!LO:SIC:v:t=custos F	!	!	!	!	!	!	!
1C	-tes	.	.	.	.	2.cc\	ve-
.	.	.	.	4e\	-ni-	.	.
!LO:LB:g=original	!	!	!	!LO:SIC:v:t=custos e	!	!	!
.	.	2G/	-tes	2e\	-ent	.	.
!	!	!	!	!LO:LB:g=original	!	!	!
.	.	.	.	.	.	4cc\	-ni-
=93-	=93-	=93-	=93-	=93-	=93-	=93-	=93-
1r	.	1r	.	2e\	di-	2b\	-ent
.	.	.	.	1d\	-cen-	2b\	di-
=94-	=94-	=94-	=94-	=94-	=94-	=94-	=94-
2.F\	ve-	2r	.	.	.	1a	-cen-
*	*	*	*ij	*	*	*	*
.	.	2.c\	ex	2cny/	-tes	.	.
4F\	-ni-	.	.	.	.	.	.
=95-	=95-	=95-	=95-	=95-	=95-	=95-	=95-
!	!	!	!	!	!	!LO:SIC:v:t=custos cc	!
2E\	-ent	.	.	1r	.	1g	-tes
!	!	!	!	!	!	!LO:LB:g=original	!
.	.	4c\	ea	.	.	.	.
2E\	di-	2B\	cer-	.	.	.	.
=96-	=96-	=96-	=96-	=96-	=96-	=96-	=96-
1D	-cen-	2B\	-ne[m]	2r	.	1r	.
*	*	*	*	*	*ij	*	*
.	.	1A/	.	2.f\	ve-	.	.
=97-	=97-	=97-	=97-	=97-	=97-	=97-	=97-
*	*	*	*	*	*	*	*ij
1C	-tes	.	.	.	.	2.cc\	ve-
.	.	.	.	4e\	-ni-	.	.
.	.	2.G/	aſ	2e\	-ent	.	.
.	.	.	.	.	.	4cc\	-ni-
=98-	=98-	=98-	=98-	=98-	=98-	=98-	=98-
1r	.	.	.	2d\	di-	2b\	-ent
.	.	4A/	.	.	.	.	.
.	.	4B\	.	1g\	-cen-	2b\	di-
.	.	4c\	.	.	.	.	.
=99-	=99-	=99-	=99-	=99-	=99-	=99-	=99-
1r	.	2.d\	ſu-	.	.	1a	-cen-
.	.	.	.	4f\	-tes	.	.
.	.	4c\	.	4e\	ve-	.	.
=100-	=100-	=100-	=100-	=100-	=100-	=100-	=100-
1r	.	4B\	mens	4d\	-ni-	0g	-tes
*	*	*	*	*	*	*	*Xij
.	.	4G/	om-	4B/	-ent	.	.
.	.	1c\	-nes	1e\	di-	.	.
=101-	=101-	=101-	=101-	=101-	=101-	=101-	=101-
1.G	Glo-	.	.	.	.	.	.
.	.	4B\	gen-	4d\	-cen-	.	.
.	.	4A/	.	4c\	.	.	.
=102-	=102-	=102-	=102-	=102-	=102-	=102-	=102-
.	.	0B	-tes	1d	-tes	2r	.
*	*	*	*Xij	*	*	*	*
2G\	-ri-	.	.	.	.	1g\	Glo-
=103-	=103-	=103-	=103-	=103-	=103-	=103-	=103-
1E	-a	.	.	2.e\	ve-	.	.
.	.	.	.	.	.	2g/	-ri-
.	.	.	.	4d\	-ni-	.	.
=104-	=104-	=104-	=104-	=104-	=104-	=104-	=104-
!	!	!LO:SIC:v:t=custos A	!	!	!	!	!
2.A\	ti-	1r	.	1c	-ent	2e/	-a
!	!	!LO:LB:g=original	!	!	!	!	!
*	*	*	*	*	*Xij	*	*
.	.	.	.	.	.	2.a\	ti-
4G\	.	.	.	.	.	.	.
=105-	=105-	=105-	=105-	=105-	=105-	=105-	=105-
4F\	.	1.A	Glo-	1r	.	.	.
4E\	.	.	.	.	.	4g/	.
1D\	.	.	.	.	.	4f/	.
.	.	.	.	.	.	4e/	.
=106-	=106-	=106-	=106-	=106-	=106-	=106-	=106-
.	.	.	.	1r	.	2d/	.
2C#X/	bi	2A/	-ri-	.	.	2e/	-bi
=107-	=107-	=107-	=107-	=107-	=107-	=107-	=107-
2.D/	do-	1A	-a	1.d	Glo-	2.f#X/	do-
4D/	-mi-	.	.	.	.	4f#/	-mi-
=108-	=108-	=108-	=108-	=108-	=108-	=108-	=108-
0GG	-ne	2r	.	.	.	2.g/	-ne
.	.	1G/	Glo-	2d\	-ri-	.	.
.	.	.	.	.	.	8fny/	.
.	.	.	.	.	.	8e/	.
=109-	=109-	=109-	=109-	=109-	=109-	=109-	=109-
.	.	.	.	1B	-a	2d/	.
.	.	2G/	-ri-	.	.	2.g/	Glo-
=110-	=110-	=110-	=110-	=110-	=110-	=110-	=110-
1r	.	2E/	-a	2.e\	ti-	.	.
.	.	.	.	.	.	4g/	-ri-
.	.	2.A/	ti-	.	.	2e/	-a
!	!	!	!	!LO:SIC:v:t=custos c	!	!	!
.	.	.	.	4d\	.	.	.
!	!	!	!	!LO:LB:g=original	!	!	!
=111-	=111-	=111-	=111-	=111-	=111-	=111-	=111-
1r	.	.	.	4c/	.	2.a\	ti-
.	.	4G/	.	4B/	.	.	.
.	.	4F/	.	1A/	.	.	.
!	!	!	!	!	!	!LO:SIC:v:t=custos f	!
.	.	4E/	.	.	.	4g/	.
!	!	!	!	!	!	!LO:LB:g=original	!
=112-	=112-	=112-	=112-	=112-	=112-	=112-	=112-
1r	.	2D/	.	.	.	2f/	.
.	.	2E/	bi	2G#X/	bi	4e/	.
.	.	.	.	.	.	4d/	.
=113-	=113-	=113-	=113-	=113-	=113-	=113-	=113-
1r	.	2F/	do-	4A/	do-	2c/	.
.	.	.	.	4B/	.	.	.
.	.	2A/	-mi-	1c\	.	2c/	bi
=114-	=114-	=114-	=114-	=114-	=114-	=114-	=114-
1r	.	1G	-ne	.	.	2.d/	do-
.	.	.	.	2B/	mi-	.	.
.	.	.	.	.	.	4d/	-mi-
=115-	=115-	=115-	=115-	=115-	=115-	=115-	=115-
1.Cny	Glo-	2.G/	Glo-	2c/	-ne	1e	-ne
.	.	.	.	2.g\	Glo-	.	.
.	.	4G/	-ri-	.	.	.	.
=116-	=116-	=116-	=116-	=116-	=116-	=116-	=116-
.	.	1E	-a	.	.	2r	.
.	.	.	.	4g\	-ri-	.	.
!LO:SIC:v:t=custos AA	!	!	!	!	!	!	!
2C/	ri-	.	.	1e\	-a	1cc\	Glo-
!LO:LB:g=original	!	!	!	!	!	!	!
=117-	=117-	=117-	=117-	=117-	=117-	=117-	=117-
1AA	-a	2.A/	ti-	.	.	.	.
.	.	.	.	2.a\	ti-	2cc\	-ri-
.	.	4G/	.	.	.	.	.
=118-	=118-	=118-	=118-	=118-	=118-	=118-	=118-
2.D/	ti-	4F/	.	.	.	2a\	-a
!	!	!LO:SIC:v:t=custos D	!	!	!	!	!
.	.	4E/	.	4g\	.	.	.
!	!	!LO:LB:g=original	!	!	!	!	!
.	.	1D/	.	4f\	.	2.dd\	ti-
4C/	.	.	.	4e\	.	.	.
=119-	=119-	=119-	=119-	=119-	=119-	=119-	=119-
4BB-X/	.	.	.	2.d\	.	.	.
4AA/	.	.	.	.	.	4cc\	.
1GG/	.	2d\	-bi	.	.	4b-X\	.
.	.	.	.	4c/	.	4a\	.
=120-	=120-	=120-	=120-	=120-	=120-	=120-	=120-
.	.	2.d\	do-	2B-X/	.	2g/	.
2FF#X/	bi	.	.	2A/	-bi	2a\	-bi
.	.	4c\	.	.	.	.	.
=121-	=121-	=121-	=121-	=121-	=121-	=121-	=121-
1.GG	Do-	4B-X\	.	1.d	do-	2.b-X\	do-
.	.	4A/	.	.	.	.	.
.	.	4G/	.	.	.	.	.
.	.	4A/	.	.	.	4a\	.
=122-	=122-	=122-	=122-	=122-	=122-	=122-	=122-
.	.	2B-X\	.	.	.	2g/	.
2GG/	-mi-	2B-\	mi-	2d\	-mi-	2g/	mi-
=123-	=123-	=123-	=123-	=123-	=123-	=123-	=123-
00D	-ne.	00A	-ne	00d	-ne.	00f#X	-ne.
=124-	=124-	=124-	=124-	=124-	=124-	=124-	=124-
.	.	.	.	.	.	.	.
=125-	=125-	=125-	=125-	=125-	=125-	=125-	=125-
.	.	.	.	.	.	.	.
=126-	=126-	=126-	=126-	=126-	=126-	=126-	=126-
.	.	.	.	.	.	.	.
=-	=-	=-	=-	=-	=-	=-	=-
*-	*-	*-	*-	*-	*-	*-	*-
!!!system-decoration: [(s1,s2,s3,s4)]
!!!ENC: Marta Opryszak
!!!END: 2022-07-01
!!!ENC: Julita Ruszuk
!!!END: 2022-07-04
